X:1
T: Deer Foot Hornpipe
C:
R:Reel
Q: 232
K:F
M:4/4
L:1/8
|:c2|cf af gc de|fe gf af ga|bg af gd bg|fe dc cB AB|
cf af gc de|fc af gc de|fe fd cB AG|F2 F2 F2:|
|:cB|BG Bd BG Bd|cA ce cA ce|dB dg ag dB|fe cA FD dc|
BG Bd BG Bd|cA ce cA ce|df ed cB AG|F2 F2 F2:|
